X:1
T:Title
%%score { ( 1 3 ) | ( 2 4 ) }
L:1/8
M:4/4
K:D
V:1 treble nm="Grand Piano"
V:3 treble 
V:2 bass 
V:4 bass 
V:1
 z4 z2[Q:1/4=100] [DF][EG] | [FA][FA][FA][FA] [FA]<[FA] [FA][Fd] | edGB [FA]2 [FA][DF] | %3
 [DF]<[CE] [CE][DF] [EG]<[GB] [FA]>[EG] | [DF]6 [DF][EG] | [FA][FA][FA][FA] [FA]<[FA] [DF][DF] | %6
 [DG][DG][DA][DA] [DB]2 [GB][GB] | [GB]<[FA] [FA][Fd] [Fd]<[Ec] [GB]>[Gc] |[M:3/4] [Fd]6 | %9
[M:1/4] dc |[M:4/4] z/ B3/2- B/ z/ z z4 | z/ A3/2- A/ z/ z z4 | %12
 [DF]<[CE] [CE][DF] [EG]<[GB] [FA]>[EG] | [DF]6 z2 | [FA][FA][FA][FA] [FA]<[FA] [DF][DF] | %15
 [DG][DG][DA][DA] [DB]2 [DGB][DGB] | [DGB]<[FA] [FA][Fd] [Fd]<[Ec] [GB]>[Gc] |[M:3/4] [Fd]6 |] %18
V:2
 z4 z2 [D,A,][D,A,] | [D,D][D,D][D,D][D,D] [D,D]<[D,D] [D,D][D,A,] | %2
 [G,B,G][G,B,G][G,B,D][G,DG][K:bass] [D,D]2 [D,D][D,A,] | %3
 [A,,A,]<[A,,A,] [A,,A,][A,,A,] [A,,A,]<[A,,A,] [A,,A,]>[A,,A,] | [D,A,]6 [D,A,][D,A,] | %5
 [D,D][D,D][D,D][D,D] [D,D]<[D,D] [=C,A,][C,A,] | %6
 [B,,G,][B,,G,][A,,F,][A,,F,] [G,,G,]2 [G,D][G,D] | %7
 [D,D]<[D,D] [D,D][D,A,] [A,,A,]<[A,,A,] [A,,A,]>[A,,A,] |[M:3/4] [D,A,]6 |[M:1/4][K:treble] FA | %10
[M:4/4] z/ G3/2- G/ z/ z z4 | z/ F3/2- F/ z/[K:bass] z z4 | %12
 [A,,A,]<[A,,A,] [A,,A,][A,,A,] [A,,A,]<[A,,A,] [A,,A,]>[A,,A,] | [D,A,]2 D,D, D,2 [D,A,D][D,A,] | %14
 [D,D][D,D][D,D][D,D] [D,D]<[D,D] [=C,A,][C,A,] | [B,,G,][C,G,][A,,F,][A,,F,] [G,,G,]2 G,G, | %16
 C,<[D,D] [D,D][D,A,] [A,,A,]<[A,,A,] [A,,A,]>[A,,A,] |[M:3/4] [D,A,]6 |] %18
V:3
 x8 | x8 | x8 | x8 | x8 | x8 | x8 | x8 |[M:3/4] x6 |[M:1/4] x2 |[M:4/4] .c2 DD D<D cB | %11
 .B2 DD D<D [DFA][A,DF] | x8 | z2 A,A, A,2 F[EG] | x8 | x8 | x8 |[M:3/4] x6 |] %18
V:4
 x8 | x8 | x4[K:bass] x4 | x8 | x8 | x8 | x8 | x8 |[M:3/4] x6 |[M:1/4][K:treble] x2 | %10
[M:4/4] .A2 G,G, G,<G, AG | .G2 D,[K:bass]D, D,<D, D,D, | x8 | x8 | x8 | x8 | x8 |[M:3/4] x6 |] %18

